TileServer und Tiles/svg/9/3_20.svg

<?xml version='1.0' encoding='UTF-8' standalone='no'?>
<svg xmlns="http://www.w3.org/2000/svg" width="497pt" viewBox="0 0 497 279" xmlns:xlink="http://www.w3.org/1999/xlink" height="279pt">
 <defs style="stroke:none;" overflow="visible">
  <path id="glyph0-5" d="M 5.15625 -4.015625 C 5.15625 -3.679688 5.054688 -3.421875 4.859375 -3.234375 C 4.660156 -3.046875 4.40625 -2.914062 4.09375 -2.84375 L 4.09375 -2.8125 C 4.425781 -2.757812 4.710938 -2.640625 4.953125 -2.453125 C 5.203125 -2.265625 5.328125 -1.96875 5.328125 -1.5625 C 5.328125 -1.113281 5.15625 -0.738281 4.8125 -0.4375 C 4.476562 -0.144531 3.925781 0 3.15625 0 L 0.84375 0 L 0.84375 -5.359375 L 3.15625 -5.359375 C 3.53125 -5.359375 3.867188 -5.316406 4.171875 -5.234375 C 4.472656 -5.148438 4.710938 -5.007812 4.890625 -4.8125 C 5.066406 -4.613281 5.15625 -4.347656 5.15625 -4.015625 Z M 4.265625 -3.90625 C 4.265625 -4.15625 4.171875 -4.335938 3.984375 -4.453125 C 3.804688 -4.566406 3.507812 -4.625 3.09375 -4.625 L 1.734375 -4.625 L 1.734375 -3.15625 L 2.9375 -3.15625 C 3.820312 -3.15625 4.265625 -3.40625 4.265625 -3.90625 Z M 4.421875 -1.5625 C 4.421875 -1.875 4.300781 -2.097656 4.0625 -2.234375 C 3.832031 -2.367188 3.492188 -2.4375 3.046875 -2.4375 L 1.734375 -2.4375 L 1.734375 -0.703125 L 3.0625 -0.703125 C 3.5 -0.703125 3.832031 -0.765625 4.0625 -0.890625 C 4.300781 -1.023438 4.421875 -1.25 4.421875 -1.5625 Z M 4.421875 -1.5625 "/>
  <path id="glyph0-4" d="M 5.515625 -2.6875 C 5.515625 -1.800781 5.285156 -1.113281 4.828125 -0.625 C 4.378906 -0.144531 3.773438 0.09375 3.015625 0.09375 C 2.535156 0.09375 2.109375 -0.0078125 1.734375 -0.21875 C 1.367188 -0.4375 1.078125 -0.753906 0.859375 -1.171875 C 0.648438 -1.585938 0.546875 -2.09375 0.546875 -2.6875 C 0.546875 -3.570312 0.769531 -4.253906 1.21875 -4.734375 C 1.664062 -5.210938 2.273438 -5.453125 3.046875 -5.453125 C 3.523438 -5.453125 3.945312 -5.34375 4.3125 -5.125 C 4.6875 -4.914062 4.976562 -4.601562 5.1875 -4.1875 C 5.40625 -3.78125 5.515625 -3.28125 5.515625 -2.6875 Z M 1.453125 -2.6875 C 1.453125 -2.050781 1.578125 -1.546875 1.828125 -1.171875 C 2.078125 -0.804688 2.476562 -0.625 3.03125 -0.625 C 3.570312 -0.625 3.96875 -0.804688 4.21875 -1.171875 C 4.46875 -1.546875 4.59375 -2.050781 4.59375 -2.6875 C 4.59375 -3.320312 4.46875 -3.816406 4.21875 -4.171875 C 3.96875 -4.535156 3.566406 -4.71875 3.015625 -4.71875 C 2.472656 -4.71875 2.078125 -4.535156 1.828125 -4.171875 C 1.578125 -3.816406 1.453125 -3.320312 1.453125 -2.6875 Z M 1.453125 -2.6875 "/>
  <path id="glyph0-3" d="M 4.015625 -5.359375 L 4.984375 -5.359375 L 2.6875 -2.78125 L 5.171875 0 L 4.15625 0 L 1.734375 -2.71875 L 1.734375 0 L 0.84375 0 L 0.84375 -5.359375 L 1.734375 -5.359375 L 1.734375 -2.765625 Z M 4.015625 -5.359375 "/>
  <path id="glyph0-2" d="M 3 0.09375 C 2.53125 0.09375 2.109375 0 1.734375 -0.1875 C 1.367188 -0.382812 1.078125 -0.6875 0.859375 -1.09375 C 0.648438 -1.5 0.546875 -2.019531 0.546875 -2.65625 C 0.546875 -3.3125 0.65625 -3.84375 0.875 -4.25 C 1.09375 -4.664062 1.390625 -4.96875 1.765625 -5.15625 C 2.148438 -5.351562 2.582031 -5.453125 3.0625 -5.453125 C 3.332031 -5.453125 3.59375 -5.425781 3.84375 -5.375 C 4.101562 -5.320312 4.3125 -5.253906 4.46875 -5.171875 L 4.203125 -4.4375 C 4.035156 -4.5 3.84375 -4.554688 3.625 -4.609375 C 3.414062 -4.660156 3.222656 -4.6875 3.046875 -4.6875 C 1.984375 -4.6875 1.453125 -4.007812 1.453125 -2.65625 C 1.453125 -2.007812 1.582031 -1.515625 1.84375 -1.171875 C 2.101562 -0.828125 2.484375 -0.65625 2.984375 -0.65625 C 3.285156 -0.65625 3.546875 -0.6875 3.765625 -0.75 C 3.984375 -0.8125 4.1875 -0.882812 4.375 -0.96875 L 4.375 -0.1875 C 4.195312 -0.09375 4 -0.0234375 3.78125 0.015625 C 3.5625 0.0664062 3.300781 0.09375 3 0.09375 Z M 3 0.09375 "/>
  <path id="glyph0-1" d="M 0.96875 0 L 0.96875 -7.140625 L 6.328125 -7.140625 L 6.328125 0 L 5.4375 0 L 5.4375 -6.34375 L 1.875 -6.34375 L 1.875 0 Z M 0.96875 0 "/>
  <path id="glyph0-0" d="M 0.9375 0 L 0.9375 -7.140625 L 5.046875 -7.140625 L 5.046875 0 Z M 1.453125 -0.515625 L 4.546875 -0.515625 L 4.546875 -6.625 L 1.453125 -6.625 Z M 1.453125 -0.515625 "/>
 </defs>
 <image width="497" xlink:href="svg/9/3_20.jpg" height="279"/>
 <g>
  <path d="M 412.507812 100.902344 L 412.507812 93.761719 L 417.867188 93.761719 L 417.867188 100.902344 L 416.976562 100.902344 L 416.976562 94.558594 L 413.414062 94.558594 L 413.414062 100.902344 Z M 412.507812 100.902344 " transform=" rotate(  340 426.82 97.9029) " style="fill:none;stroke-width:3;stroke-linecap:butt;stroke-linejoin:round;stroke:rgb(100%,100%,100%);stroke-opacity:0.6;stroke-miterlimit:10;"/>
  <path d="M 421.851562 100.996094 C 421.382812 100.996094 420.960938 100.902344 420.585938 100.714844 C 420.21875 100.519531 419.929688 100.214844 419.710938 99.808594 C 419.5 99.402344 419.398438 98.882812 419.398438 98.246094 C 419.398438 97.589844 419.507812 97.058594 419.726562 96.652344 C 419.945312 96.238281 420.242188 95.933594 420.617188 95.746094 C 421 95.550781 421.433594 95.449219 421.914062 95.449219 C 422.183594 95.449219 422.445312 95.476562 422.695312 95.527344 C 422.953125 95.582031 423.164062 95.648438 423.320312 95.730469 L 423.054688 96.464844 C 422.886719 96.402344 422.695312 96.347656 422.476562 96.292969 C 422.265625 96.242188 422.074219 96.214844 421.898438 96.214844 C 420.835938 96.214844 420.304688 96.894531 420.304688 98.246094 C 420.304688 98.894531 420.433594 99.386719 420.695312 99.730469 C 420.953125 100.074219 421.335938 100.246094 421.835938 100.246094 C 422.136719 100.246094 422.398438 100.214844 422.617188 100.152344 C 422.835938 100.089844 423.039062 100.019531 423.226562 99.933594 L 423.226562 100.714844 C 423.046875 100.808594 422.851562 100.878906 422.632812 100.917969 C 422.414062 100.96875 422.152344 100.996094 421.851562 100.996094 Z M 421.851562 100.996094 " transform=" rotate(  340 426.82 97.9029) " style="fill:none;stroke-width:3;stroke-linecap:butt;stroke-linejoin:round;stroke:rgb(100%,100%,100%);stroke-opacity:0.6;stroke-miterlimit:10;"/>
  <path d="M 427.664062 95.542969 L 428.632812 95.542969 L 426.335938 98.121094 L 428.820312 100.902344 L 427.804688 100.902344 L 425.382812 98.183594 L 425.382812 100.902344 L 424.492188 100.902344 L 424.492188 95.542969 L 425.382812 95.542969 L 425.382812 98.136719 Z M 427.664062 95.542969 " transform=" rotate(  340 426.82 97.9029) " style="fill:none;stroke-width:3;stroke-linecap:butt;stroke-linejoin:round;stroke:rgb(100%,100%,100%);stroke-opacity:0.6;stroke-miterlimit:10;"/>
  <path d="M 434.257812 98.214844 C 434.257812 99.101562 434.027344 99.789062 433.570312 100.277344 C 433.121094 100.757812 432.515625 100.996094 431.757812 100.996094 C 431.277344 100.996094 430.851562 100.894531 430.476562 100.683594 C 430.109375 100.464844 429.820312 100.148438 429.601562 99.730469 C 429.390625 99.316406 429.289062 98.808594 429.289062 98.214844 C 429.289062 97.332031 429.511719 96.648438 429.960938 96.167969 C 430.40625 95.691406 431.015625 95.449219 431.789062 95.449219 C 432.265625 95.449219 432.6875 95.558594 433.054688 95.777344 C 433.429688 95.988281 433.71875 96.300781 433.929688 96.714844 C 434.148438 97.121094 434.257812 97.621094 434.257812 98.214844 Z M 430.195312 98.214844 C 430.195312 98.851562 430.320312 99.355469 430.570312 99.730469 C 430.820312 100.097656 431.21875 100.277344 431.773438 100.277344 C 432.3125 100.277344 432.710938 100.097656 432.960938 99.730469 C 433.210938 99.355469 433.335938 98.851562 433.335938 98.214844 C 433.335938 97.582031 433.210938 97.085938 432.960938 96.730469 C 432.710938 96.367188 432.308594 96.183594 431.757812 96.183594 C 431.214844 96.183594 430.820312 96.367188 430.570312 96.730469 C 430.320312 97.085938 430.195312 97.582031 430.195312 98.214844 Z M 430.195312 98.214844 " transform=" rotate(  340 426.82 97.9029) " style="fill:none;stroke-width:3;stroke-linecap:butt;stroke-linejoin:round;stroke:rgb(100%,100%,100%);stroke-opacity:0.6;stroke-miterlimit:10;"/>
  <path d="M 439.945312 96.886719 C 439.945312 97.222656 439.84375 97.480469 439.648438 97.667969 C 439.449219 97.855469 439.195312 97.988281 438.882812 98.058594 L 438.882812 98.089844 C 439.214844 98.144531 439.5 98.261719 439.742188 98.449219 C 439.992188 98.636719 440.117188 98.933594 440.117188 99.339844 C 440.117188 99.789062 439.945312 100.164062 439.601562 100.464844 C 439.265625 100.757812 438.714844 100.902344 437.945312 100.902344 L 435.632812 100.902344 L 435.632812 95.542969 L 437.945312 95.542969 C 438.320312 95.542969 438.65625 95.585938 438.960938 95.667969 C 439.261719 95.753906 439.5 95.894531 439.679688 96.089844 C 439.855469 96.289062 439.945312 96.554688 439.945312 96.886719 Z M 439.054688 96.996094 C 439.054688 96.746094 438.960938 96.566406 438.773438 96.449219 C 438.59375 96.335938 438.296875 96.277344 437.882812 96.277344 L 436.523438 96.277344 L 436.523438 97.746094 L 437.726562 97.746094 C 438.609375 97.746094 439.054688 97.496094 439.054688 96.996094 Z M 439.210938 99.339844 C 439.210938 99.027344 439.089844 98.804688 438.851562 98.667969 C 438.621094 98.535156 438.28125 98.464844 437.835938 98.464844 L 436.523438 98.464844 L 436.523438 100.199219 L 437.851562 100.199219 C 438.289062 100.199219 438.621094 100.136719 438.851562 100.011719 C 439.089844 99.878906 439.210938 99.652344 439.210938 99.339844 Z M 439.210938 99.339844 " transform=" rotate(  340 426.82 97.9029) " style="fill:none;stroke-width:3;stroke-linecap:butt;stroke-linejoin:round;stroke:rgb(100%,100%,100%);stroke-opacity:0.6;stroke-miterlimit:10;"/>
  <g transform=" rotate(  340 426.82 97.9029) " style="fill:rgb(13.333333%,13.333333%,13.333333%);fill-opacity:1;">
   <use xlink:href="#glyph0-1" y="100.902914" x="411.540374"/>
   <use xlink:href="#glyph0-2" y="100.902914" x="418.850374"/>
   <use xlink:href="#glyph0-3" y="100.902914" x="423.650374"/>
   <use xlink:href="#glyph0-4" y="100.902914" x="428.740374"/>
   <use xlink:href="#glyph0-5" y="100.902914" x="434.790374"/>
  </g>
 </g>
</svg>

<svg xmlns="http://www.w3.org/2000/svg" xmlns:xlink="http://www.w3.org/1999/xlink" viewBox="0 0 497 279"> <defs overflow="visible" style="stroke:none">  <path id="e" d="M5.2-4c0 .3-.2.6-.3.8l-.9.4 1 .3c.2.2.3.5.3 1 0 .3-.1.7-.5.9-.3.6-.8.6-1.6.6H.8v-5.4h2.4c.3 0 .7 0 1 .2.3 0 .5.2.7.4.1.2.3.5.3.8Zm-1 0c.1-.1.1-.2-.2-.4l-1-.2H1.8v1.4H3c1 0 1.3-.2 1.3-.7Zm.3 2.5c-.1-.4-.2-.5-.4-.7-.3-.2-.6-.2-1.1-.2H1.6v1.7h1.5c.4 0 .7 0 .9-.2.3-.1.4-.3.4-.7Zm-.1-.1"/>  <path id="d" d="M5.5-2.7c0 .9-.2 1.7-.7 2-.4.7-1 .9-1.8.9-.5-.2-.9-.2-1.3-.4-.3-.2-.6-.6-.7-1C.6-1.6.5-2 .5-2.7c0-.9.3-1.6.7-2 .5-.5 1-.8 1.8-.8.5 0 1 .2 1.3.5.4 0 .7.4.9.9.2.2.3.7.3 1.3Zm-4 0c0 .7 0 1.2.3 1.5.3.4.7.6 1.2.6.6 0 1-.2 1.2-.6.3-.3.4-.8.4-1.5s-.1-1.1-.4-1.5c-.2-.3-.6-.5-1.2-.5-.5 0-1 .2-1.2.5-.2.4-.3.9-.3 1.5Zm0 0"/>  <path id="c" d="M4-5.4h1L2.7-2.8 5.2 0h-1L1.7-2.7V0H.8v-5.4h1v2.6Zm0 0"/>  <path id="b" d="M3 0c-.5 0-.9 0-1.3-.1-.3-.3-.6-.6-.7-.9-.4-.5-.5-1-.5-1.7 0-.6.2-1.1.5-1.5 0-.6.4-.8.8-1.1.2-.1.8-.2 1.2-.2l.8.1.7.2-.3.8-.6-.2H3c-1-.1-1.5.6-1.5 1.9 0 .7 0 1 .3 1.4.3.5.7.6 1.2.6h.8l.6-.3v.8a2 2 0 0 1-.6.2H3Zm0 0"/>  <path id="a" d="M1 0v-7.1h5.3V0h-.9v-6.3H2V0Zm0 0"/>  <path d="M1 0v-7.1h4V0Zm.4-.5h3.1v-6.1h-3Zm.1 0"/> </defs> <image xlink:href="svg/9/3_20.jpg" width="497" height="279"/> <path d="M412.5 100.9v-7.1h5.5v7.1h-1.1v-6.3h-3.4v6.3Zm9.4.1c-.5 0-1-.1-1.3-.3-.4-.2-.7-.5-.9-.9-.2-.4-.3-1-.3-1.6 0-.6.1-1.1.3-1.5.3-.5.5-.8 1-1 .3-.1.6-.3 1.1-.3l.9.1.6.2-.2.8-.6-.2h-.6c-1-.1-1.6.5-1.6 1.9 0 .6.1 1 .4 1.4.3.5.6.6 1.1.6h.8l.6-.3v.8a2 2 0 0 1-.6.3h-.6Zm5.8-5.5h1l-2.5 2.6 2.6 2.9h-1l-2.4-2.8v2.7h-1v-5.4h1.1v2.6Zm6.6 2.7c0 .9-.3 1.6-.7 2-.6.7-1 .8-1.8.8-.5 0-1-.1-1.3-.3-.5-.2-.7-.7-.9-1-.2-.4-.3-.9-.3-1.5 0-.9.2-1.6.7-2 .4-.5 1-.8 1.8-.8.5 0 .9.2 1.2.4.4.2.7.5.9 1 .2.2.4.7.4 1.3Zm-4.1 0c0 .8.1 1.2.4 1.5.2.4.6.6 1.2.6.5 0 1-.3 1.2-.6.2-.3.3-.7.3-1.5 0-.6 0-1.1-.3-1.5-.3-.3-.7-.5-1.2-.5-.6 0-1 .2-1.2.5-.3.4-.4.9-.4 1.5Zm9.8-1.3c0 .3-.3.6-.5.8l-.5.3c.2 0 .5.3.7.4.3.2.4.6.4 1 0 .3-.1.7-.5.9-.3.6-.9.7-1.7.7h-2.3v-5.5h2.4c.3 0 .7 0 1 .2.4 0 .6.2.8.3.1.3.1.6.1.9Zm-1 .1c0-.3 0-.4-.1-.6l-1.1-.1h-1.2v1.4h1.1c1 0 1.4-.2 1.4-.7Zm.3 2.3c-.1-.3-.2-.5-.3-.6-.4-.2-.7-.2-1.1-.2h-1.5v1.7h1.6c.3 0 .6 0 .9-.2.1 0 .3-.3.3-.7Zm-.1 0" style="fill:none;stroke-width:3;stroke-linecap:butt;stroke-linejoin:round;stroke:#fff;stroke-opacity:.6;stroke-miterlimit:10" transform=" rotate(  340 426.82 97.9029) "/> <g style="fill:#222;fill-opacity:1" transform=" rotate(  340 426.82 97.9029) ">  <use xlink:href="#a" x="411.5" y="100.9"/>  <use xlink:href="#b" x="418.9" y="100.9"/>  <use xlink:href="#c" x="423.7" y="100.9"/>  <use xlink:href="#d" x="428.7" y="100.9"/>  <use xlink:href="#e" x="434.8" y="100.9"/> </g></svg>
